!!!COM:	Josquin des Prez
!!!CDT:	~1450-1521/08/27
!!!OPR:	Missa Sine nomine
!!!OTA:	Missa Ad fugam
!!!ONM:	4
!!!OTL:	Sanctus
!!!AGN:	Mass; Sanctus
!!!SCT:	NJE 12.2
!!!SCA:	New Josquin Edition 12.2
!!!voices: 4
!!!voices-OPR:	4
**kern	**kern	**kern	**kern
*staff4	*staff3	*staff2	*staff1
*Ivox	*Ivox	*Ivox	*Ivox
*I"Bassus	*I"Tenor	*I"Altus	*I"Superius
*I'B	*I'T	*I'A	*I'S
*>[A,B,C,D,E,F,C]	*>[A,B,C,D,E,F,C]	*>[A,B,C,D,E,F,C]	*>[A,B,C,D,E,F,C]
*>Sanctus[A]	*>Sanctus[A]	*>Sanctus[A]	*>Sanctus[A]
*>Pleni[B]	*>Pleni[B]	*>Pleni[B]	*>Pleni[B]
*>Osanna[C]	*>Osanna[C]	*>Osanna[C]	*>Osanna[C]
*>Benedictus[D]	*>Benedictus[D]	*>Benedictus[D]	*>Benedictus[D]
*>Qui_venit[E]	*>Qui_venit[E]	*>Qui_venit[E]	*>Qui_venit[E]
*>In_nomine[F]	*>In_nomine[F]	*>In_nomine[F]	*>In_nomine[F]
*>A	*>A	*>A	*>A
*clefF4	*clefGv2	*clefGv2	*clefG2
*k[]	*k[]	*k[]	*k[]
*M3/1	*M3/1	*M3/1	*M3/1
*met(O)	*met(O)	*met(O)	*met(O)
=1-	=1-	=1-	=1-
!!!OMD: Sanctus
!!section: Sanctus
!	!	!LO:TX:Z=10:t=Tenor. In diapente sequentibus signis.	!
1.A	0.r	0.r	0a
1F	.	.	.
.	.	.	1a
2D\	.	.	.
=2	=2	=2	=2
2.D\	0.r	0.r	2.a/
4E\	.	.	4g/
2F\	.	.	2a/
2G\	.	.	1b-i
2D\	.	.	.
2G\	.	.	4a/
.	.	.	4g/
=3	=3	=3	=3
2.F\	0.r	0.r	2a/
.	.	.	2.b-i\
4G\	.	.	.
2A\	.	.	.
.	.	.	4a/
2c\	.	.	1a
1B-i	.	.	.
.	.	.	2g/
=4	=4	=4	=4
0A	0.r	0.r	2.a/
.	.	.	4g/
.	.	.	2e/
.	.	.	2f/
1A	.	.	2e/
.	.	.	[2c/
=5	=5	=5	=5
!!linebreak:default
2.A\	0.r	0.r	2c/]
.	.	.	2f/
4G\	.	.	.
2A\	.	.	2e/
1B-i	.	.	2d/
.	.	.	2.f/
4A\	.	.	.
4G\	.	.	4e/
=6	=6	=6	=6
2A\	0.r	0.r	2c/
2.B-i\	.	.	2.d/
4A\	.	.	4c/
1A	.	.	2A/
.	.	.	1B-i
2G\	.	.	.
=7	=7	=7	=7
0.A	0.r	0e	1A
.	.	.	2r
.	.	.	2A/
.	.	1e	2.c/
.	.	.	8B/L
.	.	.	8A/J
=8	=8	=8	=8
0.r	0.r	2.e\	4c/
.	.	.	4d/
.	.	.	4e/
.	.	4d\	4f/
.	.	2e\	2g/
.	.	1f	2a/
.	.	.	2d/
.	.	4e\	2a/
.	.	4d\	.
=9	=9	=9	=9
!!linebreak:default
0.r	0.r	2e\	2g/
.	.	2.f\	2.a/
.	.	4e\	4g/
.	.	1e	2e/
.	.	.	1f
.	.	2d\	.
=10	=10	=10	=10
1.AA	0A	0.e	2.e/
.	.	.	8d/L
.	.	.	8c/J
.	.	.	1c
2BB/	.	.	.
1C	1A	.	2r
.	.	.	2c/
=11	=11	=11	=11
2.D\	2.A/	0.r	1.f
4E\	4G/	.	.
2F\	2A/	.	.
1G	1B-i	.	2d/
.	.	.	1g
4F\	4A/	.	.
4E\	4G/	.	.
=12	=12	=12	=12
2F\	2A/	0.r	2r
2G\	2.B-i\	.	2g/
2A\	.	.	2e/
.	4A/	.	.
2AA/	1A	.	2c/
1BB-i	.	.	1d
.	2G/	.	.
=13	=13	=13	=13
!!pagebreak:default
0AA	0.A	0c	2c/
.	.	.	2.cc\
.	.	.	4b\
.	.	.	4a/
.	.	.	4g/
1D	.	1d	4f/
.	.	.	4g/
.	.	.	4a/
.	.	.	4f/
=14	=14	=14	=14
2.C/	0.r	1.e	1g
8BB/L	.	.	.
8AA/J	.	.	.
2AA/	.	.	2c/
2A\	.	2e\	2cc\
2G\	.	1e	2b\
[2A\	.	.	[2cc\
=15	=15	=15	=15
4A\]	0.r	1c	4cc\]
4G\	.	.	4b\
4F\	.	.	4a/
4E\	.	.	4g/
2D\	.	1d	2f/
2F\	.	.	2a/
1E	.	1e	1g
=16	=16	=16	=16
1D	0F	2.f\	2r
.	.	.	2.a/
.	.	4e\	.
1r	.	2d\	.
.	.	.	4f/
.	.	2c\	2a/
1E	1G	1B	4g/
.	.	.	4f/
.	.	.	4e/
.	.	.	4d/
=17	=17	=17	=17
!!linebreak:default
1.F	1.A	0A	0.c
2F\	2A/	.	.
1F	1A	1c	.
=18	=18	=18	=18
1D	1F	2d\	0.r
.	.	2f\	.
2C/	1G	2e\	.
2BB/	.	1d	.
1AA	1A	.	.
.	.	2c\	.
=19	=19	=19	=19
2GG/	2.B-i\	2d\	0.r
2D\	.	2f\	.
.	4A/	.	.
2E\	2G/	2e\	.
2F\	2F/	1d	.
1G	1E	.	.
.	.	2c#i\	.
=20	=20	=20	=20
1GG	0D	[0.dl	1d
0D	.	.	2.f/
.	.	.	4g/
.	1F	.	1a
=21	=21	=21	=21
!!linebreak:default
2GG/	2G/	0.d_	2r
2G\	2B-i\	.	2.dd\
2F\	2A/	.	.
.	.	.	4cc\
2G\	1G	.	2b\
1D	.	.	1a
.	2F/	.	.
=22	=22	=22	=22
2GG/	2G/	0.d_	2g/
2G\	2B-i\	.	2.d/
2F\	2A/	.	.
.	.	.	4c/
2G\	1G	.	2B/
1D	.	.	1A
.	2F#i/	.	.
=23	=23	=23	=23
[0.GGl	[0.Gl	0.d_	0.G
=24	=24	=24	=24
0.GG]	0.G]	0.d]	0.gl
!!LO:LB:i:g=z
=25||	=25||	=25||	=25||
!!pagebreak:default
*>B	*>B	*>B	*>B
!!section: Pleni sunt celi
!!!OMD: Pleni sunt celi
*M2/1	*M2/1	*M2/1	*M2/1
*met()	*met(C|)	*met()	*met(C|)
!!primary-mensuration: met(C|)
!	!	!	!LO:TX:Z=10:t=[Canon at the lower fourth]
*tacet	*	*tacet	*
0r	0r	0r	1a
.	.	.	[1a
=26	=26	=26	=26
0r	0r	0r	2a/]
.	.	.	4g/
.	.	.	4f/
.	.	.	2a/
.	.	.	[2g/
=27	=27	=27	=27
0r	1e	0r	4g/]
.	.	.	4f/
.	.	.	4e/
.	.	.	4d/
.	[1e	.	1c
=28	=28	=28	=28
0r	2e\]	0r	2r
.	4d\	.	1g
.	4c\	.	.
.	2e\	.	.
.	[2d\	.	2f/
=29	=29	=29	=29
0r	4d\]	0r	2a/
.	4c\	.	.
.	4B\	.	1g
.	4A/	.	.
.	1G	.	.
.	.	.	4f/
.	.	.	4e/
=30	=30	=30	=30
0r	2r	0r	1d
.	1d	.	.
.	.	.	1a
.	2c\	.	.
=31	=31	=31	=31
!!linebreak:default
0r	2e\	0r	2g/
.	1d	.	1f
.	4c\	.	4e/
.	4B\	.	4d/
=32	=32	=32	=32
0r	1A	0r	0c
.	1e	.	.
=33	=33	=33	=33
0r	2d\	0r	1r
.	1c	.	.
.	.	.	[1g
.	4B\	.	.
.	4A/	.	.
=34	=34	=34	=34
0r	0G	0r	2g/]
.	.	.	4f/
.	.	.	4e/
.	.	.	2d/
.	.	.	2g/
=35	=35	=35	=35
0r	1r	0r	2f/
.	.	.	2d/
.	[1d	.	2f/
.	.	.	2g/
=36	=36	=36	=36
0r	2d\]	0r	1.a
.	4c\	.	.
.	4B\	.	.
.	2A/	.	.
.	2d\	.	2f/
=37	=37	=37	=37
!!linebreak:default
0r	2c\	0r	2g/
.	2A/	.	1a
.	2c\	.	.
.	2d\	.	2f/
=38	=38	=38	=38
0r	1.e	0r	2g/
.	.	.	2e/
.	.	.	2g/
.	2c\	.	2a/
=39	=39	=39	=39
0r	2d\	0r	2f/
.	1e	.	2g/
.	.	.	1e
.	2c\	.	.
=40	=40	=40	=40
0r	2d\	0r	2r
.	2B\	.	2g/
.	2d\	.	2f/
.	2e\	.	[2g/
=41	=41	=41	=41
0r	2c\	0r	4g/]
.	.	.	4e/
.	2d\	.	2f/
.	1B	.	2g/
.	.	.	[2d/
=42	=42	=42	=42
0r	2r	0r	4d/]
.	.	.	4e/
.	2d\	.	4f/
.	.	.	4g/
.	2c\	.	1a
.	[2d\	.	.
=43	=43	=43	=43
!!pagebreak:default
0r	4d\]	0r	2r
.	4B\	.	.
.	2c\	.	2a/
.	2d\	.	2f/
.	[2A/	.	2a/
=44	=44	=44	=44
0r	4A/]	0r	2g/
.	4B\	.	.
.	4c\	.	1e
.	4d\	.	.
.	1e	.	.
.	.	.	2g/
=45	=45	=45	=45
0r	2r	0r	2f/
.	2e\	.	2g/
.	2c\	.	2e/
.	2e\	.	2g/
=46	=46	=46	=46
0r	2d\	0r	2f/
.	1B	.	2g/
.	.	.	1d
.	2d\	.	.
=47	=47	=47	=47
0r	2c\	0r	1a
.	2d\	.	.
.	2B\	.	2g/
.	2d\	.	2f/
=48	=48	=48	=48
0r	2c\	0r	2e/
.	2d\	.	2d/
.	1A	.	1a
=49	=49	=49	=49
!!linebreak:default
0r	1e	0r	1.g
.	2d\	.	.
.	2c\	.	2a/
=50	=50	=50	=50
0r	2B\	0r	2g/
.	2A/	.	2.a/
.	1e	.	.
.	.	.	4g/
.	.	.	2e/
=51	=51	=51	=51
0r	1.d	0r	1f
.	.	.	1g
.	2e\	.	.
=52	=52	=52	=52
0r	2d\	0r	2f/
.	2.e\	.	2.g/
.	4d\	.	4f/
.	2B\	.	2d/
=53	=53	=53	=53
0r	1c	0r	1e
.	1d	.	4d/
.	.	.	4e/
.	.	.	4f/
.	.	.	4g/
=54	=54	=54	=54
0r	2c\	0r	2a/
.	2.d\	.	2.b\
.	4c\	.	4a/
.	2A/	.	[2a/
=55	=55	=55	=55
0r	1B	0r	2a/]
.	.	.	2g#i/
.	1A	.	1al
!!LO:LB:i:g=z
=56||	=56||	=56||	=56||
!!linebreak:default
*>C	*>C	*>C	*>C
!!section: Osanna
!!!OMD: Osanna
*M3/1	*M3/1	*M3/1	*M3/1
*met(C|3)	*met(C|3)	*met(C|3)	*met(C|3)
!LO:TX:Z=10:t=Tenor. In diapente	!	!	!
*xtacet	*	*xtacet	*
0.r	0.r	1A	1.a
.	.	1c	.
.	.	.	2g/
.	.	1d	1f
=57	=57	=57	=57
0.r	0.r	1.e	1e
.	.	.	0f
.	.	2c\	.
.	.	1d	.
=58	=58	=58	=58
1.A	0.r	1e	1e
.	.	1c	1.a
2G\	.	.	.
1F	.	1d	.
.	.	.	2f/
=59	=59	=59	=59
1E	0.r	1e	1g
0F	.	1c	0a
.	.	1d	.
=60	=60	=60	=60
0E	1.e	1e	0g
.	.	1B	.
.	2d\	.	.
1r	1c	1e	1a
=61	=61	=61	=61
0.r	1B	1d	1b
.	0c	1e	1g
.	.	1c	1a
=62	=62	=62	=62
!!pagebreak:default
1.G	0B	1d	1b
.	.	1B	0g
2F\	.	.	.
1E	1r	1c	.
=63	=63	=63	=63
1D	0.r	1.d	1f
0E	.	.	1g
.	.	2B\	.
.	.	1c	1e
=64	=64	=64	=64
0D	1.d	1d	0f
.	.	1A	.
.	2c\	.	.
1r	1B	1d	1g
=65	=65	=65	=65
0.r	1A	1c	1.a
.	0B	1d	.
.	.	.	2f/
.	.	1B	1g
=66	=66	=66	=66
1.F	0A	1c	1.a
.	.	1A	.
2E\	.	.	2g/
1D	1r	1B	1f
=67	=67	=67	=67
1C	0.r	1.c	1e
0D	.	.	1f
.	.	2A/	.
.	.	1B	1d
=68	=68	=68	=68
!!linebreak:default
0C	1.c	1c	0e
.	.	1e	.
.	2B\	.	.
1D	1A	1d	1f
=69	=69	=69	=69
1E	1G	1B	1.g
1C	0A	1e	.
.	.	.	2e/
1D	.	1d	1f
=70	=70	=70	=70
0E	0G	1B	0g
.	.	1c	.
1D	1A	1d	1f
=71	=71	=71	=71
0.r	1B	1G	1d
.	1G	1B	0e
.	1A	1c	.
=72	=72	=72	=72
0G	0B	1d	1d
.	.	1g	1b
1A	1A	1f	1cc
=73	=73	=73	=73
1B-i	0.r	1d	1.dd
1G	.	0e	.
.	.	.	2b\
1A	.	.	1cc
=74	=74	=74	=74
!!linebreak:default
0B-i	0d	1d	0dd
.	.	1G	.
1A	1e	1c	1cc
=75	=75	=75	=75
1F	1f	1d	1a
0G	1d	0B	0b
.	1e	.	.
=76	=76	=76	=76
0F	0f	1c	0a
.	.	1d	.
1G	1e	1B	1b
=77	=77	=77	=77
1A	1c	1A	1.cc
1F	0d	1a	.
.	.	.	2a/
1G	.	1g	1b
=78	=78	=78	=78
0A	0c	0e	1cc
.	.	.	1ee
1r	1d	1f	1dd
=79	=79	=79	=79
0.r	1e	1g	1b
.	1c	1e	1cc
.	1d	1f	1a
=80	=80	=80	=80
!!pagebreak:default
1.c	0e	1g	1g
.	.	1e	0cc
2B\	.	.	.
1A	1r	1f	.
=81	=81	=81	=81
1G	0.r	1g	1b
1A	.	1c	1cc
1F	.	1d	1a
=82	=82	=82	=82
0E	1.g	1.e	1g
.	.	.	1b
.	2f\	2d\	.
1r	1e	1c	1cc
=83	=83	=83	=83
1G	1d	1.B	1dd
1E	1e	.	1g
.	.	2c\	.
1F	1c	1A	1a
=84	=84	=84	=84
1G	0B	1d	1b
1E	.	1e	1g
1F	1r	1c	1a
=85	=85	=85	=85
1.G	1d	0B	1b
.	1B	.	0g
2F\	.	.	.
1E	1c	1G	.
=86	=86	=86	=86
!!linebreak:default
0D	1d	1A	1f
.	1B	1B	1d
1r	1c	1A	1e
=87	=87	=87	=87
1D	1.d	1B	1d
1F	.	1A	1a
.	2c\	.	.
1G	1B	1d	1b
=88	=88	=88	=88
1A	0A	1c	1cc
1F	.	1f	1a
1G	1r	1d	1b
=89	=89	=89	=89
1.A	1A	1c	1.cc
.	1c	1.A	.
2G\	.	.	2b\
1F	1d	.	1a
.	.	2B\	.
=90	=90	=90	=90
1E	1e	1c	1g
0F	1c	0A	0a
.	1d	.	.
=91	=91	=91	=91
1E	1.e	1B	1g
1.A	.	0c	1cc
.	2d\	.	.
.	1c	.	1a
2G\	.	.	.
=92	=92	=92	=92
!!linebreak:default
1G	1B	1d	1b
1E	0c	1e	1g
1F	.	1A	1a
=93	=93	=93	=93
0G	1B	1G	1b
.	1.e	1.B	1g
1F	.	.	1a
.	2d\	2A/	.
=94	=94	=94	=94
1D	1d	0A	1f
0E	1B	.	0g
.	1c	1G	.
=95	=95	=95	=95
1D	0d	1A	1f
1G	.	1G	1b-i
1A	1c	1c	1a
=96	=96	=96	=96
1F	1A	1d	0a
0E	0B	0e	.
.	.	.	1g#i
=97	=97	=97	=97
!	!LO:N:vis=1	!	!
0.Al	0.A	0.cl	0.al
!!LO:LB:i:g=z
!LO:TX:rj:i:t=fine	!	!	!
=98||	=98||	=98||	=98||
!!pagebreak:default
*>D	*>D	*>D	*>D
!!section: Benedictus
!!!OMD: Benedictus
*M2/1	*M2/1	*M2/1	*M2/1
*met()	*met()	*met(C)	*met(C|)
!!primary-mensuration: met(C|)
*	*	*rscale:1/2	*
!	!	!	!LO:TX:Z=10:X=100:t=[Mensuration canon]
!	!	!	!LO:TX:Z=30:X=100:t=Benedictus in diapente
!	!	!LO:N:vis=1.	!
*tacet	*tacet	*	*
0r	0r	[y0d	1.a
.	.	.	2g/
=99	=99	=99-	=99
0r	0r	1d]yy	1f
.	.	1c	2e/
.	.	.	[2a/
=100	=100	=100	=100
0r	0r	0B	2a/]
.	.	.	4g#i/
.	.	.	4f#i/
.	.	.	1g#i
=101	=101	=101-	=101
0r	0r	1A	2a/
.	.	.	2cc\
.	.	[1d	2b\
.	.	.	[2a/
=102	=102	=102	=102
0r	0r	1d]	4a/]
.	.	.	4g/
.	.	.	2f/
.	.	2c\	2e/
.	.	2B\	[2g/
=103	=103	=103-	=103
0r	0r	0c	4g/]
.	.	.	4f/
.	.	.	4e/
.	.	.	4d/
.	.	.	1e
=104	=104	=104	=104
!!linebreak:default
0r	0r	1d	2d/
.	.	.	2.a/
.	.	1f	.
.	.	.	4b\
.	.	.	[2cc\
=105	=105	=105-	=105
0r	0r	1e	4cc\]
.	.	.	4b\
.	.	.	4a/
.	.	.	4g/
.	.	[1d	2f/
.	.	.	[2b-i\
=106	=106	=106	=106
0r	0r	2d\]	4b-\]
.	.	.	4a/
.	.	2c\	1a
.	.	1B-i	.
.	.	.	2g/
=107	=107	=107-	=107
0r	0r	0Al	0al
*	*	*rscale:1	*
!!LO:LB:i:g=z
=108||	=108||	=108||	=108||
*>E	*>E	*>E	*>E
!!section: Qui venit
!!!OMD: Qui venit
*M2/1	*M2/1	*M2/1	*M2/1
*met()	*met(C)	*met(C|)	*met()
!!primary-mensuration: (C|)
*	*rscale:1/2	*	*
!	!LO:TX:Z=10:t=Qui venit in diapason	!	!
!	!LO:N:vis=1.	!	!
*tacet	*xtacet	*	*tacet
0r	[y0A	0A	0r
=109	=109-	=109	=109
0r	1A]yy	1c	0r
.	1G	1B	.
=110	=110	=110	=110
!!linebreak:default
0r	0F	2A/	0r
.	.	1c	.
.	.	4B\	.
.	.	4A/	.
=111	=111-	=111	=111
0r	1E	2G/	0r
.	.	2.c\	.
.	[1A	.	.
.	.	4d\	.
.	.	[2e\	.
=112	=112	=112	=112
0r	1A]	2e\]	0r
.	.	4d\	.
.	.	4c\	.
.	2G/	2B\	.
.	2F/	[2d\	.
=113	=113-	=113	=113
0r	0G	4d\]	0r
.	.	4c\	.
.	.	4B\	.
.	.	4A/	.
.	.	1B	.
=114	=114	=114	=114
0r	1A	2A/	0r
.	.	2D/	.
.	1c	2E/	.
.	.	2F/	.
=115	=115-	=115	=115
0r	1B	3G/V	0r
.	.	3D/	.
.	.	3E/Z	.
.	[1A	4F/	.
.	.	4G/	.
.	.	4A/	.
.	.	4B\	.
=116	=116	=116	=116
!!pagebreak:default
0r	2A/]	4c\	0r
.	.	4B\	.
.	2G/	1e	.
.	1F	.	.
.	.	2d\	.
=117	=117-	=117	=117
0r	0El	0el	0r
*	*rscale:1	*	*
!!LO:LB:i:g=z
=118||	=118||	=118||	=118||
*>F	*>F	*>F	*>F
!!section: In nomine
!!!OMD: In nomine
!	!LO:TX:Z=10:t=In nomine in diapente	!	!
*M2/1	*M2/1	*M2/1	*M2/1
*met(C|)	*met(C)	*met(C|)	*met()
!!primary-mensuration: met(C|)
*	*rscale:1/2	*	*
!	!LO:N:vis=1.	!	!
*xtacet	*	*tacet	*tacet
1D	[y0d	0r	0r
1F	.	.	.
=119	=119-	=119	=119
1G	1d]yy	0r	0r
2A\	1c	.	.
2F\	.	.	.
=120	=120	=120	=120
4G\	0B	0r	0r
4F\	.	.	.
4E\	.	.	.
4D\	.	.	.
4E\	.	.	.
4D\	.	.	.
[2d\	.	.	.
=121	=121-	=121	=121
2d\]	1A	0r	0r
2c#i\	.	.	.
2d\	[1d	.	.
[2D\	.	.	.
=122	=122	=122	=122
!!linebreak:default
4D\]	1d]	0r	0r
4E\	.	.	.
4F\	.	.	.
4G\	.	.	.
2A\	2c\	.	.
2G\	2B\	.	.
=123	=123-	=123	=123
2E\	0c	0r	0r
2F\	.	.	.
2E\	.	.	.
[2F\	.	.	.
=124	=124	=124	=124
4F\]	1d	0r	0r
4E\	.	.	.
4D\	.	.	.
4C/	.	.	.
1D	1f	.	.
=125	=125-	=125	=125
4C/	1e	0r	0r
4D\	.	.	.
4E\	.	.	.
4F\	.	.	.
4G\	[1d	.	.
4F\	.	.	.
4G\	.	.	.
4A\	.	.	.
=126	=126	=126	=126
4B\	2d\]	0r	0r
4A\	.	.	.
1A	2c\	.	.
.	1B	.	.
2G#i\	.	.	.
=127	=127-	=127	=127
0Al	0Al	0r	0r
*	*rscale:1	*	*
!LO:TX:i:Y=40:rj:t=Osanna ut supra	!	!	!
=||	=||	=||	=||
*-	*-	*-	*-
!!!RDF**kern: l=long note in original notation
!!!RDF**kern: i=musica ficta
!!!RDF**kern: V=start of tuplet marker
!!!RDF**kern: Z=end of tuplet marker
!!!ENC: Jesse Rodin; Victoria Chang 2011/04/07
!!!END: 2011/04/07/
!!!SMS: Davison, Missa sine nomine
!!!EED: Jesse Rodin
!!!EEV: 2012/04/24/
!!attribution-level: 1 (secure)
!!!ONB: Translated from MusicXML and edited on 2011/04/15/ by Craig Sapp
!!muse2ps: T^@{OPR}^u^@{ONM}{. }@{OTL}^C^@{COM}\n@{SCT}^i2I100v85,90,85,100Q16
